; generated by PrusaSlicer 2.7.4+linux-x64-GTK3 on 2024-05-21 at 01:29:45 UTC

; external perimeters extrusion width = 0.45mm
; perimeters extrusion width = 0.45mm
; infill extrusion width = 0.45mm
; solid infill extrusion width = 0.45mm
; top infill extrusion width = 0.42mm
; support material extrusion width = 0.36mm
; first layer extrusion width = 0.50mm

M73 P0 R20
M201 X4000 Y4000 Z200 E2500 ; sets maximum accelerations, mm/sec^2
M203 X300 Y300 Z40 E100 ; sets maximum feedrates, mm / sec
M204 P4000 R1200 T4000 ; sets acceleration (P, T) and retract acceleration (R), mm/sec^2
M205 X8.00 Y8.00 Z2.00 E10.00 ; sets the jerk limits, mm/sec
M205 S0 T0 ; sets the minimum extruding and travel feed rate, mm/sec

M486 S0
M486 A20mm_cube.stl
M486 S-1

;TYPE:Custom
M17 ; enable steppers
M862.1 P0.4 ; nozzle diameter check
M862.3 P "MK4" ; printer model check
M862.5 P2 ; g-code level check
M862.6 P"Input shaper" ; FW feature check
M115 U5.1.2+13478

M555 X115 Y91 W32 H24

G90 ; use absolute coordinates
M83 ; extruder relative mode

M140 S60 ; set bed temp
M104 T0 S170 ; set extruder temp for bed leveling
M109 T0 R170 ; wait for temp

M84 E ; turn off E motor

G28 ; home all without mesh bed level

G1 X42 Y-4 Z5 F4800

M302 S160 ; lower cold extrusion limit to 160C


G1 E-2 F2400 ; retraction


M84 E ; turn off E motor

G29 P9 X10 Y-4 W32 H4

M106 S100

G0 Z40 F10000

M190 S60 ; wait for bed temp

M107

;
; MBL
;
M84 E ; turn off E motor
G29 P1 ; invalidate mbl & probe print area
G29 P1 X0 Y0 W50 H20 C ; probe near purge place
G29 P3.2 ; interpolate mbl probes
G29 P3.13 ; extrapolate mbl outside probe area
G29 A ; activate mbl

; prepare for purge
M104 S230
G0 X0 Y-4 Z15 F4800 ; move away and ready for the purge
M109 S230

G92 E0
M569 S0 E ; set spreadcycle mode for extruder

;
; Extrude purge line
;
G92 E0 ; reset extruder position
G1 E2 F2400 ; deretraction after the initial one before nozzle cleaning
G0 E7 X15 Z0.2 F500 ; purge
G0 X25 E4 F500 ; purge
G0 X35 E4 F650 ; purge
G0 X45 E4 F800 ; purge
G0 X48 Z0.05 F8000 ; wipe, move close to the bed
G0 X51 Z0.2 F8000 ; wipe, move quickly away from the bed

G92 E0
M221 S100 ; set flow to 100%
G21 ; set units to millimeters
G90 ; use absolute coordinates
M83 ; use relative distances for extrusion
M900 K0.05 ; Filament gcode


M572 S0.036 ; Filament gcode


M142 S36 ; set heatbreak target temp
M107
;LAYER_CHANGE
;Z:0.2
;HEIGHT:0.2
G1 E-.7 F2100
G1 Z.4 F720
M486 S0
G1 X134.093 Y114.093 F18000
G1 Z.2 F720
G1 E.7 F2100
M204 P500
;TYPE:Perimeter
;WIDTH:0.499999
G1 F2400
G1 X115.907 Y114.093 E.69118
G1 X115.907 Y95.907 E.69118
G1 X134.093 Y95.907 E.69118
G1 X134.093 Y105 E.34559
G1 X134.093 Y114.033 E.34331
M204 P2500
M204 T4000
G1 X134.55 Y114.55 F18000
M204 P500
;TYPE:External perimeter
G1 F2400
G1 X115.45 Y114.55 E.72592
G1 X115.45 Y95.45 E.72592
G1 X134.55 Y95.45 E.72592
G1 X134.55 Y105 E.36296
M73 P1 R20
G1 X134.55 Y114.49 E.36068
M204 P2500
G1 X134.154 Y114.549 F18000
G1 E-.7 F2100
G1 Z.4 F720
G1 X133.91 Y97.019 F18000
G1 Z.2 F720
G1 E.7 F2100
M204 P500
;TYPE:Solid infill
;WIDTH:0.502305
G1 F2400
G1 X133.187 Y96.296 E.03906
G1 X132.537 Y96.296 E.02483
G1 X133.704 Y97.463 E.06304
G1 X133.704 Y98.112 E.02479
G1 X131.888 Y96.296 E.0981
G1 X131.238 Y96.296 E.02483
G1 X133.704 Y98.762 E.13321
G1 X133.704 Y99.412 E.02483
G1 X130.588 Y96.296 E.16833
G1 X129.939 Y96.296 E.02479
G1 X133.704 Y100.061 E.20339
G1 X133.704 Y100.711 E.02483
G1 X129.289 Y96.296 E.2385
G1 X128.639 Y96.296 E.02483
G1 X133.704 Y101.361 E.27361
G1 X133.704 Y102.01 E.02479
G1 X127.99 Y96.296 E.30867
G1 X127.34 Y96.296 E.02483
G1 X133.704 Y102.66 E.34378
G1 X133.704 Y103.31 E.02483
G1 X126.69 Y96.296 E.3789
G1 X126.041 Y96.296 E.02479
G1 X133.704 Y103.959 E.41396
G1 X133.704 Y104.609 E.02483
G1 X125.391 Y96.296 E.44907
G1 X124.741 Y96.296 E.02483
G1 X133.704 Y105.259 E.48418
G1 X133.704 Y105.908 E.02479
G1 X124.092 Y96.296 E.51924
G1 X123.442 Y96.296 E.02483
G1 X133.704 Y106.558 E.55435
G1 X133.704 Y107.208 E.02483
G1 X122.792 Y96.296 E.58947
G1 X122.143 Y96.296 E.02479
G1 X133.704 Y107.857 E.62453
G1 X133.704 Y108.507 E.02483
G1 X121.493 Y96.296 E.65964
G1 X120.843 Y96.296 E.02483
G1 X133.704 Y109.157 E.69475
G1 X133.704 Y109.806 E.02479
G1 X120.194 Y96.296 E.72981
G1 X119.544 Y96.296 E.02483
G1 X133.704 Y110.456 E.76493
G1 X133.704 Y111.106 E.02483
G1 X118.894 Y96.296 E.80004
G1 X118.245 Y96.296 E.02479
G1 X133.704 Y111.755 E.8351
G1 X133.704 Y112.405 E.02483
G1 X117.595 Y96.296 E.87021
G1 X116.945 Y96.296 E.02483
G1 X133.704 Y113.055 E.90532
G1 X133.704 Y113.704 E.02479
G1 X116.296 Y96.296 E.94038
G1 X116.296 Y96.945 E.02479
G1 X133.055 Y113.704 E.90532
G1 X132.405 Y113.704 E.02483
M73 P2 R20
G1 X116.296 Y97.595 E.87021
G1 X116.296 Y98.245 E.02483
G1 X131.755 Y113.704 E.8351
G1 X131.106 Y113.704 E.02479
G1 X116.296 Y98.894 E.80004
G1 X116.296 Y99.544 E.02483
G1 X130.456 Y113.704 E.76493
G1 X129.806 Y113.704 E.02483
G1 X116.296 Y100.194 E.72981
G1 X116.296 Y100.843 E.02479
G1 X129.157 Y113.704 E.69475
G1 X128.507 Y113.704 E.02483
G1 X116.296 Y101.493 E.65964
G1 X116.296 Y102.143 E.02483
G1 X127.857 Y113.704 E.62453
G1 X127.208 Y113.704 E.02479
G1 X116.296 Y102.792 E.58947
G1 X116.296 Y103.442 E.02483
G1 X126.558 Y113.704 E.55435
G1 X125.908 Y113.704 E.02483
G1 X116.296 Y104.092 E.51924
G1 X116.296 Y104.741 E.02479
G1 X125.259 Y113.704 E.48418
G1 X124.609 Y113.704 E.02483
G1 X116.296 Y105.391 E.44907
G1 X116.296 Y106.041 E.02483
G1 X123.959 Y113.704 E.41396
G1 X123.31 Y113.704 E.02479
G1 X116.296 Y106.69 E.3789
G1 X116.296 Y107.34 E.02483
G1 X122.66 Y113.704 E.34378
G1 X122.01 Y113.704 E.02483
G1 X116.296 Y107.99 E.30867
G1 X116.296 Y108.639 E.02479
G1 X121.361 Y113.704 E.27361
G1 X120.711 Y113.704 E.02483
G1 X116.296 Y109.289 E.2385
G1 X116.296 Y109.939 E.02483
G1 X120.061 Y113.704 E.20339
G1 X119.412 Y113.704 E.02479
G1 X116.296 Y110.588 E.16833
G1 X116.296 Y111.238 E.02483
G1 X118.762 Y113.704 E.13321
G1 X118.112 Y113.704 E.02483
G1 X116.296 Y111.888 E.0981
G1 X116.296 Y112.537 E.02479
G1 X117.463 Y113.704 E.06304
G1 X116.813 Y113.704 E.02483
G1 X116.09 Y112.981 E.03906
M204 P2500
M106 S127.5
;LAYER_CHANGE
;Z:0.4
;HEIGHT:0.2
;BEFORE_LAYER_CHANGE
G92 E0.0
;0.4
M201 X3999.9 Y3999.9
M74 W0.0959815

G1 E-.7 F2100
G1 Z.4 F720
;AFTER_LAYER_CHANGE
;0.4
M104 S220 ; set temperature
G1 X116.09 Y112.981 Z.6 F18000
G1 X134.368 Y114.368
G1 Z.4 F720
G1 E.7 F2100
;TYPE:Perimeter
;WIDTH:0.449999
G1 F3963.416
G1 X115.632 Y114.368 E.63419
G1 X115.632 Y95.632 E.63419
G1 X134.368 Y95.632 E.63419
G1 X134.368 Y105 E.3171
G1 X134.368 Y114.308 E.31506
G1 X134.775 Y114.775 F18000
M204 P1500
;TYPE:External perimeter
G1 F2584.792
G1 X115.225 Y114.775 E.66174
G1 X115.225 Y95.225 E.66174
G1 X134.775 Y95.225 E.66174
M73 P3 R20
G1 X134.775 Y105 E.33087
G1 X134.775 Y114.715 E.32884
M204 P2500
G1 X134.379 Y114.774 F18000
G1 E-.7 F2100
G1 Z.6 F720
G1 X116.089 Y96.011 F18000
G1 Z.4 F720
G1 E.7 F2100
M204 P3000
;TYPE:Solid infill
;WIDTH:0.548766
G1 F8895.988
G2 X116.072 Y96.072 I-.059 J.017 E.01322
;WIDTH:0.449999
G1 F10587
G1 X115.978 Y96.722 E.02223
G1 X116.722 Y95.978 E.03561
G1 X117.298 Y95.978 E.0195
G1 X115.978 Y97.298 E.06319
G1 X115.978 Y97.874 E.0195
G1 X117.874 Y95.978 E.09076
G1 X118.45 Y95.978 E.0195
G1 X115.978 Y98.45 E.11833
G1 X115.978 Y99.025 E.01946
G1 X119.025 Y95.978 E.14586
G1 X119.601 Y95.978 E.0195
G1 X115.978 Y99.601 E.17343
G1 X115.978 Y100.177 E.0195
G1 X120.177 Y95.978 E.201
G1 X120.752 Y95.978 E.01946
G1 X115.978 Y100.752 E.22853
G1 X115.978 Y101.328 E.0195
G1 X121.328 Y95.978 E.2561
G1 X121.904 Y95.978 E.0195
G1 X115.978 Y101.904 E.28367
G1 X115.978 Y102.479 E.01946
G1 X122.479 Y95.978 E.3112
G1 X123.055 Y95.978 E.0195
G1 X115.978 Y103.055 E.33877
G1 X115.978 Y103.631 E.0195
G1 X123.631 Y95.978 E.36634
G1 X124.206 Y95.978 E.01946
G1 X115.978 Y104.206 E.39387
G1 X115.978 Y104.782 E.0195
G1 X124.782 Y95.978 E.42144
G1 X125.358 Y95.978 E.0195
G1 X115.978 Y105.358 E.44901
G1 X115.978 Y105.934 E.0195
G1 X125.934 Y95.978 E.47659
G1 X126.509 Y95.978 E.01946
M73 P3 R19
G1 X115.978 Y106.509 E.50411
G1 X115.978 Y107.085 E.0195
G1 X127.085 Y95.978 E.53169
G1 X127.661 Y95.978 E.0195
G1 X115.978 Y107.661 E.55926
G1 X115.978 Y108.236 E.01946
G1 X128.236 Y95.978 E.58678
G1 X128.812 Y95.978 E.0195
G1 X115.978 Y108.812 E.61436
G1 X115.978 Y109.388 E.0195
G1 X129.388 Y95.978 E.64193
G1 X129.963 Y95.978 E.01946
G1 X115.978 Y109.963 E.66945
G1 X115.978 Y110.539 E.0195
G1 X130.539 Y95.978 E.69703
G1 X131.115 Y95.978 E.0195
G1 X115.978 Y111.115 E.7246
G1 X115.978 Y111.691 E.0195
G1 X131.691 Y95.978 E.75217
G1 X132.266 Y95.978 E.01946
G1 X115.978 Y112.266 E.7797
G1 X115.978 Y112.842 E.0195
G1 X132.842 Y95.978 E.80727
G1 X133.418 Y95.978 E.0195
G1 X115.978 Y113.418 E.83484
G1 X115.978 Y113.993 E.01946
G1 X133.993 Y95.978 E.86237
G1 X134.022 Y96.525 E.01854
G1 X116.525 Y114.022 E.83757
G1 X117.101 Y114.022 E.0195
G1 X134.022 Y97.101 E.81
G1 X134.022 Y97.677 E.0195
G1 X117.677 Y114.022 E.78242
G1 X118.252 Y114.022 E.01946
G1 X134.022 Y98.252 E.7549
G1 X134.022 Y98.828 E.0195
G1 X118.828 Y114.022 E.72733
G1 X119.404 Y114.022 E.0195
G1 X134.022 Y99.404 E.69975
G1 X134.022 Y99.979 E.01946
G1 X119.979 Y114.022 E.67223
G1 X120.555 Y114.022 E.0195
G1 X134.022 Y100.555 E.64466
G1 X134.022 Y101.131 E.0195
G1 X121.131 Y114.022 E.61708
G1 X121.706 Y114.022 E.01946
G1 X134.022 Y101.706 E.58956
G1 X134.022 Y102.282 E.0195
G1 X122.282 Y114.022 E.56199
G1 X122.858 Y114.022 E.0195
G1 X134.022 Y102.858 E.53441
G1 X134.022 Y103.434 E.0195
G1 X123.434 Y114.022 E.50684
G1 X124.009 Y114.022 E.01946
G1 X134.022 Y104.009 E.47932
G1 X134.022 Y104.585 E.0195
G1 X124.585 Y114.022 E.45174
G1 X125.161 Y114.022 E.0195
G1 X134.022 Y105.161 E.42417
G1 X134.022 Y105.736 E.01946
G1 X125.736 Y114.022 E.39665
G1 X126.312 Y114.022 E.0195
G1 X134.022 Y106.312 E.36907
G1 X134.022 Y106.888 E.0195
G1 X126.888 Y114.022 E.3415
G1 X127.463 Y114.022 E.01946
G1 X134.022 Y107.463 E.31398
G1 X134.022 Y108.039 E.0195
G1 X128.039 Y114.022 E.2864
G1 X128.615 Y114.022 E.0195
G1 X134.022 Y108.615 E.25883
G1 X134.022 Y109.191 E.0195
G1 X129.191 Y114.022 E.23126
G1 X129.766 Y114.022 E.01946
G1 X134.022 Y109.766 E.20373
G1 X134.022 Y110.342 E.0195
G1 X130.342 Y114.022 E.17616
G1 X130.918 Y114.022 E.0195
G1 X134.022 Y110.918 E.14859
G1 X134.022 Y111.493 E.01946
G1 X131.493 Y114.022 E.12106
G1 X132.069 Y114.022 E.0195
G1 X134.022 Y112.069 E.09349
G1 X134.022 Y112.645 E.0195
G1 X132.645 Y114.022 E.06592
G1 X133.22 Y114.022 E.01946
G1 X134.022 Y113.22 E.03839
G1 X134.021 Y113.938 E.0243
;WIDTH:0.582266
G1 F8343.439
G2 X134.003 Y114.003 I-.062 J.019 E.01503
M204 P2500
M106 S255
;LAYER_CHANGE
;Z:0.6
;HEIGHT:0.2
;BEFORE_LAYER_CHANGE
G92 E0.0
;0.6
M201 X3999.79 Y3999.79
M74 W0.19584

G1 E-.7 F2100
G1 Z.6 F720
;AFTER_LAYER_CHANGE
;0.6
G1 X134.003 Y114.003 Z.6 F18000
G1 X134.368 Y114.368
G1 E.7 F2100
;TYPE:Perimeter
;WIDTH:0.449999
G1 F4800
G1 X115.632 Y114.368 E.63419
G1 X115.632 Y95.632 E.63419
G1 X134.368 Y95.632 E.63419
G1 X134.368 Y105 E.3171
G1 X134.368 Y114.308 E.31506
G1 X134.775 Y114.775 F18000
M204 P1500
;TYPE:External perimeter
G1 F2699.998
G1 X115.225 Y114.775 E.66174
G1 X115.225 Y95.225 E.66174
G1 X134.775 Y95.225 E.66174
M73 P4 R19
G1 X134.775 Y105 E.33087
G1 X134.775 Y114.715 E.32884
M204 P2500
G1 X134.379 Y114.774 F18000
G1 E-.7 F2100
G1 Z.8 F720
G1 X116.011 Y113.911 F18000
G1 Z.6 F720
G1 E.7 F2100
M204 P3000
;TYPE:Solid infill
;WIDTH:0.548766
G1 F8895.988
G2 X116.072 Y113.928 I.017 J.059 E.01322
;WIDTH:0.449999
G1 F9805
G1 X115.978 Y113.278 E.02223
G1 X116.722 Y114.022 E.03561
G1 X117.298 Y114.022 E.0195
G1 X115.978 Y112.702 E.06319
G1 X115.978 Y112.126 E.0195
G1 X117.874 Y114.022 E.09076
G1 X118.45 Y114.022 E.0195
G1 X115.978 Y111.551 E.11831
G1 X115.978 Y110.975 E.0195
G1 X119.025 Y114.022 E.14586
G1 X119.601 Y114.022 E.0195
G1 X115.978 Y110.399 E.17343
G1 X115.978 Y109.823 E.0195
G1 X120.177 Y114.022 E.201
G1 X120.752 Y114.022 E.01946
G1 X115.978 Y109.248 E.22853
G1 X115.978 Y108.672 E.0195
G1 X121.328 Y114.022 E.2561
G1 X121.904 Y114.022 E.0195
G1 X115.978 Y108.096 E.28367
G1 X115.978 Y107.521 E.01946
G1 X122.479 Y114.022 E.3112
G1 X123.055 Y114.022 E.0195
G1 X115.978 Y106.945 E.33877
G1 X115.978 Y106.369 E.0195
G1 X123.631 Y114.022 E.36634
G1 X124.206 Y114.022 E.01946
G1 X115.978 Y105.794 E.39387
G1 X115.978 Y105.218 E.0195
G1 X124.782 Y114.022 E.42144
G1 X125.358 Y114.022 E.0195
G1 X115.978 Y104.642 E.44901
G1 X115.978 Y104.066 E.0195
G1 X125.934 Y114.022 E.47659
G1 X126.509 Y114.022 E.01946
G1 X115.978 Y103.491 E.50411
G1 X115.978 Y102.915 E.0195
G1 X127.085 Y114.022 E.53169
G1 X127.661 Y114.022 E.0195
G1 X115.978 Y102.339 E.55926
G1 X115.978 Y101.764 E.01946
G1 X128.236 Y114.022 E.58678
G1 X128.812 Y114.022 E.0195
G1 X115.978 Y101.188 E.61436
G1 X115.978 Y100.612 E.0195
G1 X129.388 Y114.022 E.64193
G1 X129.963 Y114.022 E.01946
G1 X115.978 Y100.037 E.66945
G1 X115.978 Y99.461 E.0195
G1 X130.539 Y114.022 E.69703
G1 X131.115 Y114.022 E.0195
G1 X115.978 Y98.885 E.7246
G1 X115.978 Y98.309 E.0195
G1 X131.691 Y114.022 E.75217
G1 X132.266 Y114.022 E.01946
G1 X115.978 Y97.734 E.7797
G1 X115.978 Y97.158 E.0195
G1 X132.842 Y114.022 E.80727
G1 X133.418 Y114.022 E.0195
G1 X115.978 Y96.582 E.83484
G1 X115.978 Y96.007 E.01946
G1 X133.993 Y114.022 E.86237
G1 X134.022 Y113.475 E.01854
G1 X116.525 Y95.978 E.83757
G1 X117.101 Y95.978 E.0195
G1 X134.022 Y112.899 E.81
G1 X134.022 Y112.323 E.0195
G1 X117.677 Y95.978 E.78242
G1 X118.252 Y95.978 E.01946
G1 X134.022 Y111.748 E.7549
G1 X134.022 Y111.172 E.0195
G1 X118.828 Y95.978 E.72733
G1 X119.404 Y95.978 E.0195
G1 X134.022 Y110.596 E.69975
G1 X134.022 Y110.021 E.01946
G1 X119.979 Y95.978 E.67223
G1 X120.555 Y95.978 E.0195
G1 X134.022 Y109.445 E.64466
G1 X134.022 Y108.869 E.0195
G1 X121.131 Y95.978 E.61708
G1 X121.706 Y95.978 E.01946
G1 X134.022 Y108.294 E.58956
G1 X134.022 Y107.718 E.0195
G1 X122.282 Y95.978 E.56199
G1 X122.858 Y95.978 E.0195
G1 X134.022 Y107.142 E.53441
G1 X134.022 Y106.566 E.0195
G1 X123.434 Y95.978 E.50684
G1 X124.009 Y95.978 E.01946
G1 X134.022 Y105.991 E.47932
G1 X134.022 Y105.415 E.0195
G1 X124.585 Y95.978 E.45174
G1 X125.161 Y95.978 E.0195
G1 X134.022 Y104.839 E.42417
G1 X134.022 Y104.264 E.01946
G1 X125.736 Y95.978 E.39665
G1 X126.312 Y95.978 E.0195
G1 X134.022 Y103.688 E.36907
G1 X134.022 Y103.112 E.0195
G1 X126.888 Y95.978 E.3415
G1 X127.463 Y95.978 E.01946
G1 X134.022 Y102.537 E.31398
G1 X134.022 Y101.961 E.0195
G1 X128.039 Y95.978 E.2864
G1 X128.615 Y95.978 E.0195
G1 X134.022 Y101.385 E.25883
G1 X134.022 Y100.809 E.0195
G1 X129.191 Y95.978 E.23126
G1 X129.766 Y95.978 E.01946
G1 X134.022 Y100.234 E.20373
G1 X134.022 Y99.658 E.0195
G1 X130.342 Y95.978 E.17616
G1 X130.918 Y95.978 E.0195
G1 X134.022 Y99.082 E.14859
G1 X134.022 Y98.507 E.01946
G1 X131.493 Y95.978 E.12106
G1 X132.069 Y95.978 E.0195
G1 X134.022 Y97.931 E.09349
G1 X134.022 Y97.355 E.0195
G1 X132.645 Y95.978 E.06592
G1 X133.22 Y95.978 E.01946
G1 X134.022 Y96.78 E.03839
G1 X134.003 Y95.997 E.02651
;WIDTH:0.582266
G1 F8343.439
G3 X133.938 Y95.979 I-.046 J.044 E.01503
M204 P2500
;LAYER_CHANGE
;Z:0.8
;HEIGHT:0.2
;BEFORE_LAYER_CHANGE
G92 E0.0
;0.8
M201 X3999.68 Y3999.68
M74 W0.295706

G1 E-.7 F2100
G1 Z.8 F720
;AFTER_LAYER_CHANGE
;0.8
G1 X133.938 Y95.979 Z1 F18000
G1 X134.368 Y114.368
G1 Z.8 F720
G1 E.7 F2100
;TYPE:Perimeter
;WIDTH:0.449999
G1 F4800
G1 X115.632 Y114.368 E.63419
G1 X115.632 Y95.632 E.63419
G1 X134.368 Y95.632 E.63419
G1 X134.368 Y105 E.3171
G1 X134.368 Y114.308 E.31506
G1 X134.775 Y114.775 F18000
M204 P1500
;TYPE:External perimeter
G1 F2699.998
G1 X115.225 Y114.775 E.66174
G1 X115.225 Y95.225 E.66174
G1 X134.775 Y95.225 E.66174
M73 P5 R19
G1 X134.775 Y105 E.33087
G1 X134.775 Y114.715 E.32884
M204 P2500
G1 X134.379 Y114.774 F18000
G1 E-.7 F2100
G1 Z1 F720
G1 X116.089 Y96.011 F18000
G1 Z.8 F720
G1 E.7 F2100
M204 P3000
;TYPE:Solid infill
;WIDTH:0.548766
G1 F8895.988
G2 X116.072 Y96.072 I-.059 J.017 E.01322
;WIDTH:0.449999
G1 F10002
G1 X115.978 Y96.722 E.02223
G1 X116.722 Y95.978 E.03561
G1 X117.298 Y95.978 E.0195
